icons/outline/rv-truck.svg

<svg xmlns="http://www.w3.org/2000/svg" width="24" height="24" viewBox="0 0 24 24" fill="none" stroke="currentColor" stroke-width="2" stroke-linecap="round" stroke-linejoin="round"><path d="M7 17m-2 0a2 2 0 1 0 4 0a2 2 0 1 0 -4 0"/><path d="M17 17m-2 0a2 2 0 1 0 4 0a2 2 0 1 0 -4 0"/><path d="M9 17h6"/><path d="M19 17h1a1 1 0 0 0 1 -1v-4.528a2 2 0 0 0 -.211 -.894l-.96 -1.92a3 3 0 0 0 -2.683 -1.658h-11.146a3 3 0 0 0 -3 3v6a1 1 0 0 0 1 1h1"/><path d="M3 12h18"/><path d="M15 12v-5"/><path d="M6 4m0 1.5a1.5 1.5 0 0 1 1.5 -1.5h7a1.5 1.5 0 0 1 1.5 1.5v0a1.5 1.5 0 0 1 -1.5 1.5h-7a1.5 1.5 0 0 1 -1.5 -1.5z"/></svg>

<svg xmlns="http://www.w3.org/2000/svg" width="24" height="24" fill="none" stroke="currentColor" stroke-linecap="round" stroke-linejoin="round" stroke-width="2"><path d="M5 17a2 2 0 1 0 4 0 2 2 0 1 0-4 0M15 17a2 2 0 1 0 4 0 2 2 0 1 0-4 0M9 17h6"/><path d="M19 17h1a1 1 0 0 0 1-1v-4.528a2 2 0 0 0-.211-.894l-.96-1.92A3 3 0 0 0 17.146 7H6a3 3 0 0 0-3 3v6a1 1 0 0 0 1 1h1M3 12h18M15 12V7M6 5.5A1.5 1.5 0 0 1 7.5 4h7A1.5 1.5 0 0 1 16 5.5v0A1.5 1.5 0 0 1 14.5 7h-7A1.5 1.5 0 0 1 6 5.5"/></svg>
